.local/share/icons/Gruvbox-Plus-Dark/panel/22/indicator-virtual-box.svg

<svg xmlns="http://www.w3.org/2000/svg" width="22" height="22" version="1.1">
 <defs>
  <style id="current-color-scheme" type="text/css">
   .ColorScheme-Text { color:#ebdbb2; } .ColorScheme-Highlight { color:#458588; }
  </style>
 </defs>
 <path style="fill:currentColor" class="ColorScheme-Text" d="M 5 3 C 3.892 3 3 3.892 3 5 L 3 17 C 3 18.108 3.892 19 5 19 L 17 19 C 18.108 19 19 18.108 19 17 L 19 5 C 19 3.892 18.108 3 17 3 L 5 3 z M 9.9921875 5 A 1.0001 1.0001 0 0 1 10.960938 5.7246094 L 12.072266 9.6171875 L 13.050781 6.6835938 A 1.0001 1.0001 0 0 1 14.949219 6.6835938 L 16.720703 12 L 18 12 L 18 14 L 16 14 A 1.0001 1.0001 0 0 1 15.050781 13.316406 L 14 10.164062 L 12.949219 13.316406 A 1.0001 1.0001 0 0 1 11.039062 13.275391 L 10.171875 10.240234 L 8.9804688 16.195312 A 1.0001 1.0001 0 0 1 7.0390625 16.275391 L 5.2460938 10 L 4 10 L 4 8 L 6 8 A 1.0001 1.0001 0 0 1 6.9609375 8.7246094 L 7.828125 11.759766 L 9.0195312 5.8046875 A 1.0001 1.0001 0 0 1 9.9921875 5 z"/>
</svg>

<svg width="22" height="22" version="1.1" xmlns="http://www.w3.org/2000/svg">
  <defs>
    <style id="current-color-scheme" type="text/css">.ColorScheme-Text { color:#ebdbb2; } .ColorScheme-Highlight { color:#458588; } .ColorScheme-NeutralText { color:#fe8019; } .ColorScheme-PositiveText { color:#689d6a; } .ColorScheme-NegativeText { color:#fb4934; }</style>
  </defs>
  <path class="ColorScheme-Text" d="m5 3c-1.108 0-2 0.892-2 2v12c0 1.108 0.892 2 2 2h12c1.108 0 2-0.892 2-2v-12c0-1.108-0.892-2-2-2h-12zm4.992 2a1 1 0 0 1 0.9688 0.7246l1.111 3.893 0.9785-2.934a1 1 0 0 1 1.898 0l1.771 5.316h1.279v2h-2a1 1 0 0 1-0.9492-0.6836l-1.051-3.152-1.051 3.152a1 1 0 0 1-1.91-0.04102l-0.8672-3.035-1.191 5.955a1 1 0 0 1-1.941 0.08008l-1.793-6.275h-1.246v-2h2a1 1 0 0 1 0.9609 0.7246l0.8672 3.035 1.191-5.955a1 1 0 0 1 0.9727-0.8047z" fill="currentColor"/>
</svg>
